X:1
T:Der Zacharias
T:Joachim a Burck
T:Source : Breitkopf & Härtel---Leipzig---R.Eitner---1898. First print : 20 Deutsche Liedlein zu 4 Stimmen---Erfurt---G.Baumann---1575. Editor : André Vierendeels (07/11/17). Notes : Original clefs : C1, C2, C3, F3 Editorial accidentals above the staff Text : Ludwig Helmbold (Christeliche Reimen)
T:Der Zacharias
T:©
T:©
T:©
C:Joachim a Burck
Z:©
%%score [ 1 2 [ 3 4 ] ]
L:1/8
Q:1/4=120
M:4/4
K:C
V:1 treble nm="Soprano" snm="S"
V:2 treble nm="Alto" snm="A"
V:3 treble-8 nm="Tenor 1" snm="T 1"
V:4 treble-8 nm="Tenor 2" snm="T 2"
V:1
"^1)" c4 c4 | B2 A4 A2 | c2 c2 B4 | B2 B4 c2 | A2 A2 G2 G2 | G4 z2 G2 | A4 A4 | B6 c2 | d8 | %9
w: Der Za-|cha- ri- as|gantz ver- stumbt,|bis dass von|sei- nem Wei- be|kompt ein|Sohn durch|Got- tes|Gü-|
w: Des Kin-|des Nam Jo-|han- nes heisst,|den Na- men|sei- ne Lehr be-|weist, von|dem huld-|re- chen|Je-|
 G4 z4 | c4 c4 | B2 A4 A2 | c2 c2 B4 | B2 B4 c2 | A2 A2 G2 G2 | G4 z2 G2 | A4 A4 | B6 c2 | d8 | %19
w: te,|vom wel-|chem die Weis-|sag ge- schehn,|dass er solt|für dem Herrn her-|gehn, dess|freut sich|sein Ge-|mü|
w: su,|zur buss|be- ruft er|je- der- man,|zei- get den|Sün- dern Chri- sten|an, der|sie reich-|lich er-|lö-|
 G4 z4 | B4 B4 | B2 c4 c2 | B2 A2 A4 | z2 d4 c2- | c2 B2 A4 | d4 e4 | d4 d4 | z4 d4 | e4 d2 c2- | %29
w: te.|Der Geist|die sprach ihm|wie- der bringt,|mit Freu-|* den fängt|er an|und singt:|ge-|lo- bet sey|
w: se.|Der ist|das Lamb, welchs|Gott ge- fällt;|er trägt|_ die Sünd|der gan|tzen Welt.|Ge-|lo- bet sey|
 c2 B2 A4 | G4 c4 | B4 A2 G2- | G2 G2 ^F4 | G4 z2 G2 | c2 d2 e2 f2- | f2 e4 d2 | e4 d2 B2- | %37
w: _ der Her-|re, gantz|Is- ra- el|_ Gott eh-|re, er|hat be- sucht, er|_ hat er-|löst, sein Volck|
w: _ der Her-|re gantz|Is- ra- el|_ Gott eh-|re, er|hat be- sucht er|_ hat er-|löst sein Volck|
 B2 c2 d2 d2 | e6 c2- | c2 BA B4 | c8 |] %41
w: _ gläu- bets und|sey ge-||tröst.|
w: _ gläu- bets und|sey ge-||tröst.|
V:2
"^2)""^1)" G4 A4 | G2 E4 F2 | A2 F2 G4 | G2 G4 G2 | F2 F2 D2 D2 | E4 z2 E2 | F4 E4 | G6 G2 | F8 | %9
w: Der Za-|cha- ri- as|gantz ver- stumbt,|bis dass von|sei- nem Wei- be|kompt ein|Sohn durch|Got- tes|Gü-|
w: Sol- che|Pre- digt Jo-|han- nes führt,|an kei- nen|per- so- nen sich|kert, straf-|fet die|Sün- der|al-|
 E4 z4 | G4 A4 | G2 E4 F2 | A2 F2 G4 | G2 G4 G2 | F2 F2 D2 D2 | E4 z2 E2 | F4 E4 | G6 G2 | F8 | %19
w: te,|vom wel-|chem die Weis-|sag ge- schehn,|dass er solt|für dem Herrn her-|gehn, dess|freut sich|sein Ge-|mü-|
w: le.|Will's der|He- ro- des|lei- den nicht|und ihm dar-|umb sein Kopf ab-|schlägt, ey,|so lässt|mans Gott|wal|
 E4 z4 | G4 G4 | G2 A4 A2 | G2 E2 F4 | A4 A4 | G4 EDEF | G2 G2 c4 | A4 B4 | z4 B4 | c4 G2 A2- | %29
w: te.|Der Geist|die sprach ihm|wie- der bringt,|mit Freu-|den fängt _ _ _|_ er an|und singt:|ge-|lo- bet sey|
w: ten.|Der zei-|lich Todt ihm|gar nichts schadt,|wer gläubt,|das e- * * *|* wig Le-|ben hat.|ge-|lo- bet sey|
 A2 E2 A,4 | B,4 z2 G2 | G4 F2 E2- | E2 E2 D4 | D4 z2 D2 | F2 F2 E2 A2 | c3 B A2 A2 | c4 B4 | %37
w: _ der Her-|re, gantz|Is- ra- el|_ Gott eh-|re, er|hat be- sucht, er|hat _ _ er-|löst, sein|
w: _ der Her-|re, gantz|Is- ra- el|_ Gott eh-|re, er|hat be- sucht, er|hat _ _ er-|löst, sein|
 G4 A4 | c4 G4 | G6 G2 | G8 |] %41
w: Volck gläu-|bets und|sey ge-|tröst.|
w: Volck gläu-|bets und|sey ge-|tröst.|
V:3
"^3)""^1)" e4 f4 | d2 c4 d2 | e2 c2 d4 | d2 d2 d2 e2 | d2 c4 B2 | c4 z2 c2 | c4 c4 | d4 e2 c2- | %8
w: Der Za-|cha- ri- as|gantz ver- stumbt,|bis dass von sei-|nem Wei- be|kompt, ein|Sohn durch|Got- tes Gü-|
 c2 BA B4 | c4 z4 | E4 F4 | D2 C4 D2 | E2 C2 D4 | D2 D2 D2 E2 | D2 C4 B,2 | C4 z2 C2 | C4 C4 | %17
w: |te,|vom wel-|chem die Weis-|sag ge- schehn,|dass er solt für|dem Herrn her-|gehn, des|freut sich|
 d4 e2 c2- | c2 BA B4 | c4 z4 | d4 d4 | e2 e4 f2 | d2 ^c2 d4 | f4 f3 e | d2 d2 c4 | G2 gf ef g2- | %26
w: sein Ge- mü-||te.|Der Geist|die sprach ihm|wie- der bringt|mit Freu- *|* den fängt|er an _ _ _ _|
 g2 ^f2 g4 | z4 g4 | g2 g2 g2 e2 | cd e3 d d2 | e4 e4 | d4 d2 B2- | B2 c2 A4 | G4 z2 B2 | %34
w: _ und singt:|ge-|lo- bet sey der|Her- * * * *|re, gantz|Is- ra- el|_ Gott Eh-|re, er|
 A2 B2 c2 c2 | e4 f4 | g6 d2 | e4 f4 | g4 e4 | d4 d4 | c8 |] %41
w: hat be- sucht, er|hat er|löst, sein|Volck gläu-|bets und|sey ge-|tröst.|
V:4
"^1)" c4 F4 | G2 A4 D2 | A2 A2 G4 | G2 G4 E2 | F2 F2 G2 G2 | C4 z2 C2 | F4 A4 | G4 E4 | D8 | %9
w: Der Za-|cha- ri- as|gantz ver- stumbt,|bis dass von|sei- nem Wei- be|kompt, ein|Sohn durch|Got- tes|Gü-|
 C4 z4 | c4 F4 | G2 A4 D2 | A2 A2 G4 | G2 G4 E2 | F2 F2 G2 G2 | C4 z2 C2 | F4 A4 | G4 E4 | D8 | %19
w: te,|vom wel-|chem die Weis-|sag ge- schehn,|dass er solt|für dem Herrn her-|gehn, dess|freut sich|sein Ge-|mü-|
 C4 z4 | G4 G4 | E2 A4 F2 | G2 A2 D4- | D2 D2 F4 | G4 A4 | B4 c4 | d4 G4 | z4 G4 | c4 B2 A2- | %29
w: te.|Der Geist|die sprach ihm|wie- der bringt|_ mit Freu-|den fängt|er an|und singt:|ge-|lo- bet sey|
 A2 G2 F4 | E4 C4 | G4 D2 E2- | E2 C2 D4 | G4 z2 G2 | F2 D2 C2 F2 | c4 d4 | c4 G4 | E4 D4 | %38
w: _ der Her-|re, gantz|Is- ra- el|_ Gott Eh-|re, er|hat be- sucht, er|hat er-|löst, sein|Volck gläu-|
 C2 C2 CDEF | G4 G4 | C8 |] %41
w: bets und sey _ _ _|_ ge-|tröst.|

